X:1
T:Title
%%score ( 1 2 ) ( 3 4 )
L:1/8
Q:1/4=90
M:4/4
K:Ab
V:1 treble nm="Grand Piano, Soprano"
V:2 treble 
V:3 bass nm="Choir Pad, Then We’ll See Him"
V:4 bass 
V:1
 [CE]>[CE] [DF]>[DA] [DB]>[DA] [DF]<[CE] | [CE]>[CE] [DF]>[FA] [FA]>[DF] [CE]2 | %2
w: By~William~Evander~Penn * * * * * * *||
 [EA]>[EA] [EB]>[EB] [EB]>[EB] [EB]>[EB] | [Ec]>[Ec] [EB]6 | %4
w: ||
 [EA]>[EB] [Ec]>[Ec] [Ec]>[DB] [DB]<[CA] | [CE]>[CE] [DF]>[FA] [FA]>[DF] [CE]2 | %6
w: ||
 [CE]>[CE] [DF]>[FA] [FA]>[=EB] [_Ec]>[Ec] | [DB]>[DB] [CA]6 | [Ec]>[GB] [FA]4 [DF]2 | %9
w: |||
 [FA]>[DF] [CE]4 [CA]2 | [EA]>[EB] [Ac]<[Ae] [Ae]>[Ae] [Ae]<[Ec] | %11
w: ||
 [EB]>[EA] [DF]>[FA] [FA]>[DF] [DF]<[CE] | [A,C]>[B,D] [CE]4 [CA]2 | z2 B2 z4 | %14
w: |||
 [Ge]>[Ae] [Ae]>[Ae] [Ae]>[Ec] [FB]<[FA] | [Ec]>[DB] [CA]6- | [CA]2 z2 z4 |] %17
w: |||
V:2
 x8 | x8 | x8 | x8 | x8 | x8 | x8 | x8 | x8 | x8 | x8 | x8 | x8 | [CA]>[CA] E2- [Ec]2 [Ge]2 | x8 | %15
 x8 | x8 |] %17
V:3
 [A,,A,]>[A,,A,] [D,A,]>[D,F,] [D,F,]>[D,F,] [A,,A,]<[A,,A,] | %1
 [A,,A,]>[A,,A,] [D,A,]>[D,A,] [D,A,]>[D,A,] [A,,A,]2 | %2
 [C,A,]>[C,A,] [E,G,]>[E,G,] [E,G,]>[E,G,] [E,G,]>[E,G,] | A,>A, G,4- G,-[D,G,] | %4
 [C,A,]>[B,,G,] [A,,A,]>[A,,A,] [A,,A,]>[A,,A,] [A,,A,]<[A,,A,] | %5
 [A,,A,]>[A,,A,] [D,A,]>[D,A,] [D,A,]>[D,A,] [A,,A,]2 | %6
 [A,,A,]>[A,,A,] [D,A,]>[D,A,] [D,A,]>[D,A,] [E,A,]>[E,A,] | [E,G,]>[E,G,] [A,,A,]6 | %8
 z2 [D,A,]2 [D,A,]2 [D,A,]2 | [D,A,]2 [A,,A,]2 [A,,A,]2 [A,,A,]<[A,,A,] | %10
 [C,A,]>[E,G,] A,<[A,C] [A,C]>[A,C] [A,C]<[A,E] | %11
 [A,E]>[A,E] [D,A,]>[D,A,] [D,A,]>[D,A,] [A,,A,]<[A,,A,] | z2 [A,,A,]2 [A,,A,]2 [A,,A,]2 | %13
 [A,,A,]2 [E,G,]2 [E,A,]2 [E,B,]<[E,B,] | [A,C]>[A,C] [A,C]>[A,C] [A,C]>[A,C] [D,D]<[D,D] | %15
 [E,A,]>[E,G,] [A,,A,]6- | [A,,A,]2 z2 z4 |] %17
V:4
 x8 | x8 | x8 | z2 E,6 | x8 | x8 | x8 | x8 | x8 | x8 | x8 | x8 | x8 | x8 | x8 | x8 | x8 |] %17

